X: 3347
T: Franskmanden
B:[[Notböcker/Melodier til gamle danske Almuedanse for Violin solo]]
O:Danmark
Z:Søren Bak Vestergaard
M: 2/4
L: 1/8
K: A
(c/d/)|efed|cAAc|ddcc|B3 (c/d/)|efed|\
cAAd|c(c/d/) B(B/c/)|A2 z:| |:A|ffff|fcde|\
fgaf|e3 (f/e/)|dcBd|e3 (f/e/)|c(c/d/) B(B/c/)|A2 z:|
(:musicend:)
(:music:)
